tools/download-figma-icons/icons/solid/lkw.svg

<svg width="24" height="24" viewBox="0 0 24 24" fill="none" xmlns="http://www.w3.org/2000/svg">
<path d="M23.925 11.6775V11.6625L21.9075 7.515C21.6525 7.035 21.15 6.7425 20.5875 6.7425H15.75V5.9775C15.75 5.16 15.075 4.5 14.25 4.5H1.485C0.6675 4.5 0 5.16 0 5.9775V15.825C0 16.6425 0.6675 17.31 1.485 17.31H2.8125C3.0225 18.5475 4.095 19.5 5.3925 19.5C6.7125 19.5 7.8 18.51 7.98 17.2425H16.5375C16.725 18.51 17.805 19.4925 19.125 19.4925C20.445 19.4925 21.525 18.51 21.7125 17.2425H22.5C23.31 17.2425 24 16.5525 24 15.7425V11.9925C24 11.88 23.97 11.775 23.925 11.6775ZM5.3925 18C4.77 18 4.2675 17.49 4.2675 16.875C4.2675 16.2525 4.77 15.75 5.3925 15.75C6.015 15.75 6.5175 16.2525 6.5175 16.875C6.5175 17.49 6.015 18 5.3925 18ZM18.75 8.2125L20.5725 8.1975L22.05 11.2425H18.75V8.2125ZM19.125 17.9925C18.5025 17.9925 18 17.49 18 16.8675C18 16.245 18.5025 15.7425 19.125 15.7425C19.7475 15.7425 20.25 16.245 20.25 16.8675C20.25 17.49 19.7475 17.9925 19.125 17.9925ZM22.5 15.7425H21.4875C21.06 14.8575 20.1675 14.2425 19.125 14.2425C18.0825 14.2425 17.19 14.8575 16.7625 15.7425H15.75V8.2425L17.25 8.2275V11.9925C17.25 12.405 17.5875 12.7425 18 12.7425H22.5V15.7425Z" fill="black"/>
</svg>

<svg xmlns="http://www.w3.org/2000/svg" width="24" height="24" fill="none" viewBox="0 0 24 24"><path fill="currentColor" d="M23.925 11.678v-.016l-2.018-4.147a1.48 1.48 0 0 0-1.32-.772H15.75v-.766a1.49 1.49 0 0 0-1.5-1.477H1.485C.667 4.5 0 5.16 0 5.978v9.847c0 .817.668 1.485 1.485 1.485h1.328a2.626 2.626 0 0 0 2.58 2.19c1.32 0 2.407-.99 2.587-2.258h8.558c.187 1.268 1.267 2.25 2.587 2.25s2.4-.982 2.587-2.25h.788c.81 0 1.5-.69 1.5-1.5v-3.75a.75.75 0 0 0-.075-.315M5.393 18c-.623 0-1.125-.51-1.125-1.125A1.124 1.124 0 1 1 5.393 18M18.75 8.213l1.823-.015 1.477 3.044h-3.3zm.375 9.78A1.123 1.123 0 0 1 18 16.868c0-.623.503-1.125 1.125-1.125a1.123 1.123 0 1 1 0 2.249m3.375-2.25h-1.012a2.63 2.63 0 0 0-2.363-1.5 2.63 2.63 0 0 0-2.363 1.5H15.75v-7.5l1.5-.016v3.765c0 .413.337.75.75.75h4.5z"/></svg>
